X:1
T:Title
%%score { 1 | 2 }
L:1/8
M:6/8
K:Eb
V:1 treble nm="Grand Piano"
V:2 bass 
V:1
 z3 z2[Q:1/4=84] E/F/ | G>FA G2 E/G/ | [GB]>[_G=A][_Ac] .[=GB]3 | [Ge]>[EG][Ac] [GB]2 E | %4
 G F2 z2 E/F/ | G>_GA =G2 E/G/ | [GB]>[_G=A][_Ac] .[=GB]3 | [Ge]>[EBd][EAc] [EGB]2 [EG] | %8
 [A,DF] [G,E]2- [G,E] z z | .[Ge]3 .[EGB]3 | c>BG .E3 | [A,DF]>[G,DG][DA] [EG]2 [DF] | %12
[M:5/8] [EG] [GB]2 z2 |[M:1/8] [GB]/[GB]/ |[M:3/4] c>=B c e2 d/c/ | [GB]>[_G=A] [Gc] .[=GB]3 | %16
 [EG]>[EG] [CEA] [B,EG]2 [G,B,E] |[M:5/8] [A,B,F] [G,B,E]3 z |] %18
V:2
 z3 z2 [E,G,]/[E,A,E]/ | [E,B,E]>[E,A,E][E,CE] [E,B,E]2 [E,G,]/[E,B,E]/ | %2
 [E,E]>[E,E][E,E] .[E,E]3 | [E,B,]>[E,B,][E,E] [E,E]2 [G,B,] | [B,E] [B,D]2 z2 [E,G,]/[E,A,E]/ | %5
 [E,B,E]>[E,=A,E][E,CE] [E,B,E]2 [E,G,]/[E,B,E]/ | [E,E]>[E,E][E,E] .[E,E]3 | [E,B,]>G,A, B,2 B, | %8
 B,, E,2- E, z z | .[E,B,]3 .E,3 | C>B,G, .E,3 | B,,>B,,[B,,F,] [B,,B,]2 [B,,B,] | %12
[M:5/8] [E,B,] [E,E]2 z2 |[M:1/8] [E,E]/[E,E]/ | %14
[M:3/4][K:treble] [A,EA]>[A,DA] [A,EA] [A,CA]2 [A,DA]/[A,EA]/ | [E,E]>[E,C] [E,A,] .[E,B,]3 | %16
 [B,,B,]>[B,,B,] B,, B,,2 B,, |[M:5/8] B,, E,3 z |] %18

